X: 1
T: Flags Of Dublin, The
M: 4/4
L: 1/8
R: reel
K: Dmaj
e|(3ABA cA eAcA|~A3 g faec|(3ABA cA eAcA|faec dcBe|
(3ABA cA eAcA|ceag a2 ce|afge f2 ec|faec dcbe|
~a3 e fecd|e~A3 eAce|~a3 e fece|faec dcbe|
~a3 e fecd|~e3 c e2 fg|afge f2 ec|faec de B2|
